X:98
T:Rumble in the Kishka
M:C|
L:1/8
C:© Paul Gitlitz 1999
R:Reel
B:Giblitz Fancy
N:There's Jewish dish called Kishka that's like Haggis. Kishka is Yiddish for guts.
K:A
"A"A,2C2 "Dm"D2AB|"F"=cBA=F "Dm"E{=F}ED2|GA=FA "Dm/C"EADA|"Bb"CD_B,D "A7"A,4|!
"A"A,2C2 "Dm"D2AB|"F"=cBA=F "Dm"E{=F}ED2|"Fdim"G2=F2 "G#dim"BAFD|1"A7"EDCE "Dm "D3D:|2"A7"EDCE "Dm"D2DE|!
|:"Dm"=FABA "F"FA=cA|"Dm"=FAdA  "F"FA=cA|"G#dim"B=cBc "B7"_ecBA|"Dm"GA=FA "E7"E4|!
"Dm"DE=F2"E"EFG2|"F"=FGA2"E"GAB2|"Dm"AB=c^d "Dm/A"edcB|"Dm/F"AG=F2 "E"E4:|]
